X: 09044
T: GENNY'S JIG
C: Bob McQuillen 15 Mar 92
B: Bob's Note Book 9 #44
%R: jig
Z: 2018 John Chambers <jc:trillian.mit.edu>
M: 6/8
L: 1/8
K: C
A \
| GEG cBc | Gcd e2e | fga geg | ece dcA |
| GEG cBc | Gcd e2e | fga ged | ecc c2 :|
|: d \
| ede ceg | age g2g | ede ceg | gfe dgf |
| ede cde | dcA GEG | ceg fdB | dcc c2 :|
%%begintext align
%% Genny Vaughn
%% is from Waldwick, NJ, and she is a great autoharp
%% enthusiast. She lives not too far from Drew Smith,
%% over in Ho-Ho-Kus, and sometimes gets to jam with
%% him. I see Genny quite often at various musical events,
%% and I hope I get to hear you play this on your harp, Genny!
%%endtext

%%sep 1 1 500

%%sep 1 1 500

